X:329
T: Malbruck (4-30), S. 42
N: P0591
O: Lothringen
S: PINCK, Louis: Verklingende Weisen Bd 4, Kassel 1939]
R: Kriegslied, historisches Lied]
M: 4/4
L: 1/8
K: G
B2 | B2B2BAB2 | c4B4
A2G2A2G2 | AAA2G2
B2 | B2B2A2B2 | c4B2
d2 | B2G2AAA2 | G6
d2 | d2d2eee2 | d4B2
d2 | d2d2eee2 | d4z2

